X: 1
T: Hamilton House
T: 8x32J (RSCDS Bk 7, ca. 1789)
P: Colonel Hamilton's Delight
C: Originally Ours Vol. 1, arr. T. Traub Jul-8-2016
R: jig
M: 6/8
L: 1/8
K: G
d|"G"g3 dBd|"Am"c2 B "D"A2 c|"G"BdB "A7"A2 G|"D"FEF D3|"G"g3 dBd|"Am"c2 B Ace|"G"dcB "D"AGF|"G"G3 G3||
"G"D3 "C"EDE|"G"DGB d2 d|"Am"c2 B "A"A2 G|"D"FEF D2 D|"C"E2 c cde|"G"dBG "C"G2 g|"G"dBG "D"cAF|"G"G3 G2 ||
|: B/c/|"Bm"dBd "C"ege|"G"dBd "Am"c2 A|"G"dBG "C"EFG|"A"ABA "D"FED|"G"dBd "C"ege|"Bm"dBd "Am"c2 A|"G"dBG "D"DEF |"G"G3 G2 :|
